src/resources/icon__advantages--3.svg

<svg width="74" height="74" viewBox="0 0 74 74" fill="none" xmlns="http://www.w3.org/2000/svg">
<g clip-path="url(#clip0)">
<path d="M36.8836 73.7673C16.5438 73.7673 0 57.2199 0 36.8836C0 16.5473 16.5438 0 36.8836 0C57.2235 0 73.7673 16.5473 73.7673 36.8836C73.7673 57.2199 57.2199 73.7673 36.8836 73.7673ZM36.8836 1.41249C17.3242 1.41249 1.41249 17.3242 1.41249 36.8836C1.41249 56.4431 17.3242 72.3548 36.8836 72.3548C56.4431 72.3548 72.3548 56.4431 72.3548 36.8836C72.3548 17.3242 56.4431 1.41249 36.8836 1.41249Z" fill="#45C8DA"/>
<path d="M22.6036 40.6797C19.3055 31.5762 20.0258 23.3343 20.0576 22.9882C20.0894 22.6598 20.3436 22.395 20.672 22.3526C20.7745 22.3385 31.0644 21.0107 37.1381 16.8333C37.3783 16.6673 37.6961 16.6673 37.9397 16.8333C39.2322 17.7196 40.8141 18.5495 42.6468 19.2946L42.1136 20.6047C40.3692 19.8949 38.8331 19.1109 37.5372 18.267C31.9543 21.9041 23.6948 23.3378 21.4242 23.6733C21.3253 25.6649 21.2159 32.7203 23.9243 40.1994L22.6036 40.6797Z" fill="black"/>
<path d="M37.5438 58.4982C37.4237 58.4982 37.3001 58.4664 37.1942 58.4064C34.3763 56.7926 31.855 54.801 29.6938 52.481L30.7285 51.517C32.7024 53.6357 34.9942 55.4684 37.5473 56.9763C47.9821 50.8284 51.7287 40.6055 53.0317 33.0699L54.423 33.31C53.0529 41.227 49.0767 52.0043 37.9004 58.4029C37.7839 58.4664 37.6638 58.4982 37.5438 58.4982Z" fill="black"/>
<path d="M44.3734 49.8891L43.3281 48.9357C45.1785 46.9088 46.7216 44.5358 47.9152 41.8803L49.2041 42.4594C47.9505 45.2491 46.3261 47.7492 44.3734 49.8891Z" fill="black"/>
<path d="M41.22 52.82L40.3442 51.7112C40.9975 51.1957 41.6296 50.6448 42.2264 50.0692L43.2081 51.0862C42.5795 51.6936 41.9121 52.2762 41.22 52.82Z" fill="black"/>
<path d="M22.8506 29.8706C22.6741 27.1975 22.8295 25.4707 22.8365 25.3965C22.8683 25.0681 23.1225 24.8033 23.4509 24.7609C23.4969 24.7538 28.1016 24.1641 32.5297 22.4939L33.0276 23.8145C29.3269 25.2129 25.6121 25.8662 24.2066 26.0816C24.1748 26.7772 24.1466 28.0838 24.2561 29.7788L22.8506 29.8706Z" fill="black"/>
<path d="M17.6312 55.0235L16.5083 54.169L31.064 35.065C31.3006 34.7543 31.742 34.6943 32.0527 34.9309L35.9865 37.9289L46.2624 24.4396L43.4692 22.3103C43.2679 22.1549 43.162 21.9077 43.1973 21.6535C43.2326 21.4027 43.3986 21.1873 43.6316 21.092L56.4288 15.9117C56.6583 15.8199 56.9231 15.8517 57.1209 16.0035C57.3186 16.1553 57.4246 16.399 57.3928 16.6462L55.8038 30.3685C55.7755 30.6192 55.6131 30.8382 55.38 30.937C55.1469 31.0359 54.8786 31.0041 54.6773 30.8488L51.8841 28.7194L37.7557 47.2654C37.6427 47.4137 37.4732 47.5126 37.2895 47.5373C37.1024 47.562 36.9152 47.5126 36.7669 47.3996L32.8331 44.4016L26.431 52.8059L25.3081 51.9513L32.134 42.9856C32.247 42.8373 32.4165 42.7384 32.6001 42.7137C32.7837 42.689 32.9744 42.7384 33.1227 42.8514L37.0565 45.8494L51.1849 27.3034C51.2979 27.1551 51.4674 27.0562 51.651 27.0315C51.8347 27.0068 52.0253 27.0562 52.1737 27.1692L54.5431 28.9737L55.8567 17.6738L45.3125 21.943L47.6819 23.7475C47.9927 23.9841 48.0527 24.4255 47.8161 24.7362L36.6857 39.3484C36.5727 39.4967 36.4032 39.5956 36.2196 39.6203C36.0324 39.645 35.8453 39.5956 35.697 39.4826L31.7632 36.4846L17.6312 55.0235Z" fill="black"/>
</g>
<defs>
<clipPath id="clip0">
<rect width="73.7673" height="73.7673" fill="white"/>
</clipPath>
</defs>
</svg>

<svg width="74" height="74" fill="none" xmlns="http://www.w3.org/2000/svg"><g clip-path="url(#a)"><path d="M36.884 73.767C16.544 73.767 0 57.22 0 36.884 0 16.547 16.544 0 36.884 0s36.883 16.547 36.883 36.884c0 20.336-16.547 36.883-36.883 36.883zm0-72.355c-19.56 0-35.472 15.912-35.472 35.472 0 19.56 15.912 35.47 35.472 35.47 19.56 0 35.47-15.91 35.47-35.47S56.445 1.412 36.885 1.412z" fill="#45C8DA"/><path d="M22.604 40.68c-3.299-9.104-2.578-17.346-2.546-17.692a.71.71 0 0 1 .614-.635c.102-.015 10.392-1.342 16.466-5.52a.707.707 0 0 1 .802 0c1.292.887 2.874 1.716 4.707 2.462l-.533 1.31c-1.745-.71-3.28-1.494-4.577-2.338-5.583 3.637-13.842 5.07-16.113 5.406-.099 1.992-.208 9.047 2.5 16.526l-1.32.48zM37.544 58.498a.718.718 0 0 1-.35-.092 31.863 31.863 0 0 1-7.5-5.925l1.035-.964a30.477 30.477 0 0 0 6.818 5.46C47.982 50.827 51.73 40.605 53.032 33.07l1.391.24c-1.37 7.917-5.346 18.694-16.523 25.093a.74.74 0 0 1-.356.095z" fill="#000"/><path d="m44.373 49.89-1.045-.954c1.85-2.027 3.394-4.4 4.587-7.056l1.29.58c-1.255 2.79-2.879 5.29-4.832 7.43zM41.22 52.82l-.876-1.109a25.244 25.244 0 0 0 1.882-1.642l.982 1.017a25.884 25.884 0 0 1-1.988 1.734zM22.85 29.87c-.176-2.672-.02-4.4-.014-4.474a.71.71 0 0 1 .615-.635c.046-.007 4.65-.597 9.079-2.267l.498 1.32c-3.701 1.399-7.416 2.052-8.821 2.268-.032.695-.06 2.002.05 3.697l-1.406.092zM17.631 55.023l-1.123-.854 14.556-19.104a.704.704 0 0 1 .989-.134l3.934 2.998 10.275-13.49-2.793-2.129a.705.705 0 0 1-.272-.656.715.715 0 0 1 .435-.562l12.797-5.18a.707.707 0 0 1 .692.091.7.7 0 0 1 .272.643l-1.59 13.723a.705.705 0 0 1-1.126.48l-2.793-2.13-14.128 18.546a.709.709 0 0 1-.99.135l-3.933-2.998-6.402 8.404-1.123-.855 6.826-8.965a.709.709 0 0 1 .989-.135l3.934 2.998 14.128-18.546a.709.709 0 0 1 .989-.134l2.37 1.805 1.313-11.3-10.544 4.269 2.369 1.804c.31.237.37.678.134.99l-11.13 14.611a.709.709 0 0 1-.989.135l-3.934-2.998-14.132 18.538z" fill="#000"/></g><defs><clipPath id="a"><path fill="#fff" d="M0 0h73.767v73.767H0z"/></clipPath></defs></svg>
